X: 41749
T: Valse Frontenac
R: waltz
M: 3/4
K: Amajor
c3 e2B/d/|c2 B A3|f3 def|e3 e3|d2d dcB|
[1e2c A2c|B4 ef|gf ed cB:|2 e2c A2d|c3 B3|A3 E/F/ G/A/ B/A/||
c3 e2B|c3 e3|f3 def|e3 e3|d2d dcB|
c2c cBA|B4 ef|gf ed cB|c3 e2B|c3 e3|
ff/ d/ f/g/ agf|e3 e3|d2d dcB|e2c A2d|c3 B3|A4 AB||

